assets/images/vector/icons/award_cert_icon.svg

<svg fill="none" height="60" viewBox="0 0 58 60" width="58" xmlns="http://www.w3.org/2000/svg"><path d="m45.8327 47.5001c-2.74 0-5.1467-1.34-6.6667-3.38v13.38c0 .6734.4067 1.2834 1.03 1.54.6233.2634 1.3367.1167 1.8167-.36l3.82-3.82 3.82 3.82c.32.32.7466.4867 1.18.4867.2133 0 .4333-.04.6366-.1267.6234-.2566 1.03-.8666 1.03-1.54v-13.38c-1.52 2.04-3.9266 3.38-6.6666 3.38z" fill="#111"/><g stroke="#111" stroke-linecap="round" stroke-linejoin="round" stroke-width="10"><path d="m33.3333 53.3333h-21.6666c-3.68337 0-6.6667-2.9833-6.6667-6.6666v-35c0-3.68337 2.98333-6.6667 6.6667-6.6667h28.3333c3.6833 0 6.6667 2.98333 6.6667 6.6667v10.8333"/><path d="m15 18.3333h21.6667"/><path d="m15 29.1667h10"/><path d="m15 40h10"/><path d="m45.8333 47.4999c4.6024 0 8.3334-3.7309 8.3334-8.3333s-3.731-8.3333-8.3334-8.3333c-4.6023 0-8.3333 3.7309-8.3333 8.3333s3.731 8.3333 8.3333 8.3333z"/></g></svg>

<svg width="58" height="60" viewBox="0 0 58 60" fill="none" xmlns="http://www.w3.org/2000/svg">
<path d="M45.8327 47.5001C43.0927 47.5001 40.686 46.1601 39.166 44.1201V57.5001C39.166 58.1735 39.5727 58.7835 40.196 59.0401C40.8193 59.3035 41.5327 59.1568 42.0127 58.6801L45.8327 54.8601L49.6527 58.6801C49.9727 59.0001 50.3993 59.1668 50.8327 59.1668C51.046 59.1668 51.266 59.1268 51.4693 59.0401C52.0927 58.7835 52.4993 58.1735 52.4993 57.5001V44.1201C50.9793 46.1601 48.5727 47.5001 45.8327 47.5001Z" fill="#111111"/>
<path d="M33.3333 53.3333H11.6667C7.98333 53.3333 5 50.35 5 46.6667V11.6667C5 7.98333 7.98333 5 11.6667 5H40C43.6833 5 46.6667 7.98333 46.6667 11.6667V22.5" stroke="#111111" stroke-width="10" stroke-linecap="round" stroke-linejoin="round"/>
<path d="M15 18.3333H36.6667" stroke="#111111" stroke-width="10" stroke-linecap="round" stroke-linejoin="round"/>
<path d="M15 29.1667H25" stroke="#111111" stroke-width="10" stroke-linecap="round" stroke-linejoin="round"/>
<path d="M15 40H25" stroke="#111111" stroke-width="10" stroke-linecap="round" stroke-linejoin="round"/>
<path d="M45.8333 47.4999C50.4357 47.4999 54.1667 43.769 54.1667 39.1666C54.1667 34.5642 50.4357 30.8333 45.8333 30.8333C41.231 30.8333 37.5 34.5642 37.5 39.1666C37.5 43.769 41.231 47.4999 45.8333 47.4999Z" stroke="#111111" stroke-width="10" stroke-linecap="round" stroke-linejoin="round"/>
</svg>
